!!!!SEGMENT: Wil3038-Perot_viendras_tu_aux_nopces.krn
!!!id: Wil3038
!!!AGN: Chanson
!!!SCT: Bernstein (1984)
!!!voices: 3
!!!COM: Adrian Willaert
!!!OTL: Perot, viendras tu aux nopces?
**kern	**kern	**kern
*part3	*part2	*part1
*staff3	*staff2	*staff1
*I"Bassus	*I"Tenor	*I"Superius
*I'B	*I'T	*I'S
*clefF4	*clefGv2	*clefGv2
*k[b-]	*k[b-]	*k[b-]
*F:	*F:	*F:
*M2/1	*M2/1	*M2/1
*met(C|)	*met(C|)	*met(C|)
=1	=1	=1
1A	1r	0r
1F	1A	.
=2	=2	=2
0r	1F	1A
.	2A	1F
.	2c	.
=3	=3	=3
1D	2B-y	1r
.	2A	.
2BB-y	2G	2r
2D	2F	[2A
=4	=4	=4
2C	1A	2A]
1D	.	1F
.	1F	.
2F	.	2A
=5	=5	=5
2E	2G	2c
2D	2F	2B-y
1C	2F	2A
.	2E	2G
=6	=6	=6
2D	1F	2F
2.F	.	1A
.	1r	.
4E	.	.
4D	.	2F
4C	.	.
=7	=7	=7
2BB-y	0r	2G
2AA	.	2F
2GG	.	2F
2GG	.	2E
=8	=8	=8
1FF	2r	0F
.	1c	.
1r	.	.
.	2A	.
=9	=9	=9
2.BB-y	2.B-y	2r
.	.	1F
4AA	4c	.
2BB-y	2d	.
2C	2G	2E
=10	=10	=10
2D	1r	2F
2BB-y	.	2G
2.F	2r	2A
.	[2F	2A
4E	.	.
=11	=11	=11
2D	2F]	2B-y
2C	2E	2c
2BB-y	2F	2d
4AA	2G	2B-y
4GG	.	.
=12	=12	=12
2FF	2A	2.c
1F	2A	.
.	.	4B-y
.	2F	4A
.	.	4G
4E	2F	[2F
4D	.	.
=13	=13	=13
1C	2G	2F]
.	2G	2E
2r	1A	1F
[2D	.	.
=14	=14	=14
2D]	2.A	1r
2C	.	.
.	4A	.
2D	2A	2r
2BB-y	2B-y	[2F
=15	=15	=15
2AA	1c	2F]
2C	.	2E
2D	2.A	2F
[2F	.	2D
.	4B-y	.
=16	=16	=16
2F]	2A	2C
2E	2G	2G
1F	2F	2A
.	[2A	[2c
=17	=17	=17
1D	2A]	2c]
.	2F	2B-y
1AA	2A	2c
.	2c	2A
=18	=18	=18
2D	2B-y	1F
2F	2A	.
2E	2G	2r
2D	2F	2A
=19	=19	=19
2C	2r	2c
2D	1F	2B-y
2r	.	2A
[2BB-y	[2D	2G
=20	=20	=20
2BB-]	4D]	2F
.	4E	.
2FF	4F	1A
.	4G	.
2F	2.A	.
2D	.	2F
.	4B-y	.
=21	=21	=21
2E	2c	2G
2F	2A	2F
2.C	1G	2F
.	.	2E
4BB-y	.	.
=22	=22	=22
4AA	1F	1F
4GG	.	.
2BB-y	.	.
1FF	2.A	1r
.	4B-y	.
=23	=23	=23
0r	2c	2.F
.	2d	.
.	.	4F
.	2c	2F
.	2B-y	2G
=24	=24	=24
0r	2c	2A
.	1d	2F
.	.	2G
.	2c	[2A
=25	=25	=25
1r	2.B-y	2A]
.	.	2G
.	4A	.
2r	4F	2A
.	4G	.
[2F	4A	4F
.	4B-y	4G
=26	=26	=26
2F]	1c	4A
.	.	4B-y
2E	.	1c
2F	1d	.
2G	.	2BnXi
=27	=27	=27
1A	[0c	1c
2.F	.	2r
.	.	[2A
4F	.	.
=28	=28	=28
2F	1c]	2A]
2E	.	2G
2.D	1r	2A
.	.	2B-y
8CL	.	.
8BB-yJ	.	.
=29	=29	=29
2AA	0r	1c
2C	.	.
2D	.	2.A
[2F	.	.
.	.	4A
=30	=30	=30
2F]	1r	2A
2E	.	2G
1F	1A	2F
.	.	2c
=31	=31	=31
1.D	1F	2d
.	.	1f
.	2A	.
2C	2c	2e
=32	=32	=32
2D	2B-y	1f
2F	2A	.
2E	2G	2r
2D	2F	[2A
=33	=33	=33
2C	1A	2A]
2D	.	2F
1r	1F	2A
.	.	2c
=34	=34	=34
0r	2G	2B-y
.	2F	2A
.	2F	2G
.	2E	2G
=35	=35	=35
0r	2F	1A
.	1c	.
.	.	1F
.	4B-y	.
.	4A	.
=36	=36	=36
2.BB-y	4B-y	2G
.	4A	.
.	4G	2F
4BB-y	4F	.
2BB-y	1G	2F
2C	.	2E
=37	=37	=37
1D	1r	1F
2D	2.F	2r
[2BB-y	.	[2D
.	4F	.
=38	=38	=38
4BB-]	2F	4D]
4BB-y	.	4D
2BB-y	2G	2D
2C	2A	2E
[2D	2A	2F
=39	=39	=39
4D]	2.F	2F
4C	.	.
4BB-y	.	2.D
4AA	4F	.
1BB-y	2F	.
.	.	4D
.	2G	2D
=40	=40	=40
1AA	1A	2E
.	.	2.F
2r	2.A	.
.	.	4E
[2F	.	4D
.	4A	4C
=41	=41	=41
4F]	2A	1D
4F	.	.
2F	2B-y	.
2G	1c	2C
2A	.	[2F
=42	=42	=42
2D	2.A	4F]
.	.	4E
2F	.	2D
.	4A	.
2F	2A	1C
2E	2G	.
=43	=43	=43
2F	0F	2.A
2.D	.	.
.	.	4A
.	.	2A
4D	.	.
2D	.	2B-y
=44	=44	=44
2E	1r	1c
1F	.	.
.	2.A	2.c
[2F	.	.
.	4A	4d
=45	=45	=45
2F]	2A	2c
2G	2B-y	2B-y
2F	1c	2A
2E	.	2G
=46	=46	=46
2F	2.A	2F
2D	.	1f
.	4B-y	.
1C	2A	.
.	2G	2e
=47	=47	=47
1A	1F	1f
1F	1A	1r
=48	=48	=48
0r	1F	1A
.	2A	1F
.	2c	.
=49	=49	=49
1D	2B-y	1r
.	2A	.
2BB-y	2G	2r
2D	2F	[2A
=50	=50	=50
2C	1A	2A]
1D	.	1F
.	1F	.
2F	.	2A
=51	=51	=51
2E	2G	2c
2D	2F	2B-y
1C	2F	2A
.	2E	2G
=52	=52	=52
2D	1F	2F
2.F	.	1A
.	1r	.
4E	.	.
4D	.	2F
4C	.	.
=53	=53	=53
2BB-y	0r	2G
2AA	.	2F
2GG	.	2F
2GG	.	2E
=54	=54	=54
1FF	1A	2F
.	.	2c
2.BB-y	1F	2d
.	.	[2B-y
4AA	.	.
=55	=55	=55
2GG	2G	2B-]
2AA	2F	2A
2BB-y	2F	2G
2C	2E	2G
=56	=56	=56
00FFl	00Fl	00Fl
==	==	==
*-	*-	*-
!!!system-decoration: [*]
!!!RDF**kern: i = editorial accidental
!!!RDF**kern: l = terminal long
!!!ENC: Benjamin Ory
!!!END: 2023/10/12
!!!EED: Benjamin Ory
!!!EEV: 2023/10/12
!!!YEC: Copyright 2023 Benjamin Ory, All Rights Reserved
!!!ONB: Translated from MusicXML on 2023/10/12
